X: 555
T: Xiang gege
L: 1/8
M: 2/4
K: Bb
f> f d f [I:setbarnb 1]| 
b2c' f' | 
b2g b | 
f4 | 
f' f' f' d' | 
c'2d' f | 
g2f d | 
c4 |]

@@@ Tune index: 9429
